svg/uFE4E5.svg

<svg viewBox="0 0 2600 2760.837" xmlns="http://www.w3.org/2000/svg"><path d="M2503 1767q3 9 4 17.5t1 18.5q0 27-16 57.5t-161.5 152.5-328.5 189-417 67q-147 0-310.5-22t-253.5-22q-193 0-350.5 61t-224.5 115-112 54q-46 0-78-29t-36-73l-127-1272q0-12-1-17 3-31 12.5-49.5t43-63 99.5-101.5 157-101.5 209.5-73.5 270.5-29q135 0 250 8t218 8q231 0 350-57.5t182-120.5 86.5-67.5 33.5-4.5q41 0 69.5 22.5t38.5 57.5z m-107 34l-392-1275q-131 131-274 190t-378 59q-103 0-217-7.5t-251-7.5q-230 0-404 78t-275 229l128 1275q125-104 306.5-167.5t381.5-63.5q85 0 251 22t313 22q253 0 440.5-84t370.5-270z m-857-627q158 114 158 290 0 137-113 233.5t-265 96.5q-212 0-361.5-115.5t-149.5-300.5q0-143 105.5-230.5t270.5-87.5q197 0 355 114z"/></svg>

<svg viewBox="0 0 2600 2760.837" xmlns="http://www.w3.org/2000/svg"><path d="M2503 1767q3 9 4 17.5t1 18.5q0 27-16 57.5T2330.5 2013 2002 2202t-417 67q-147 0-310.5-22t-253.5-22q-193 0-350.5 61T446 2401t-112 54q-46 0-78-29t-36-73L93 1081q0-12-1-17 3-31 12.5-49.5t43-63T247 850t157-101.5T613.5 675 884 646q135 0 250 8t218 8q231 0 350-57.5T1884 484t86.5-67.5 33.5-4.5q41 0 69.5 22.5T2112 492zm-107 34L2004 526q-131 131-274 190t-378 59q-103 0-217-7.5T884 760q-230 0-404 78t-275 229l128 1275q125-104 306.5-167.5T1021 2111q85 0 251 22t313 22q253 0 440.5-84t370.5-270zm-857-627q158 114 158 290 0 137-113 233.5t-265 96.5q-212 0-361.5-115.5T808 1378q0-143 105.5-230.5T1184 1060q197 0 355 114z"/></svg>
